svgs/sharp-regular/person-seat-reclined.svg

<svg xmlns="http://www.w3.org/2000/svg" viewBox="0 0 512 512"><!--! Font Awesome Pro 6.6.0 by @fontawesome - https://fontawesome.com License - https://fontawesome.com/license (Commercial License) Copyright 2024 Fonticons, Inc. --><path d="M176 128a48 48 0 1 0 0-96 48 48 0 1 0 0 96zm-16 32l-29.9 0 6.5 29.2L163 308.1c5.7 25.6 28.4 43.9 54.7 43.9l117.9 0 42 107.9 7.4 19 20-4.3 44.8-9.6 23.5-5-10.1-46.9-23.5 5-24.8 5.3L374.4 319.3l-6-15.3L352 304l-68.7 0-10.7-48 55.4 0 24 0 0-48-24 0-66.1 0-6.5-29.2L251.3 160 232 160l-72 0zm52.7 48l21.3 96-16.4 0c-3.7 0-7-2.6-7.8-6.3L189.9 208l22.8 0zM79.6 147.8l-4.2-23.6-47.3 8.3 4.2 23.6 48 272L83.9 448l20.1 0 176 0 24 0 0-48-24 0-155.9 0L79.6 147.8z"/></svg>

<svg xmlns="http://www.w3.org/2000/svg" viewBox="0 0 512 512"><!--! Font Awesome Pro 6.4.2 by @fontawesome - https://fontawesome.com License - https://fontawesome.com/license (Commercial License) Copyright 2023 Fonticons, Inc. --><path d="M176 128a48 48 0 1 0 0-96 48 48 0 1 0 0 96zm-16 32H130.1l6.5 29.2L163 308.1c5.7 25.6 28.4 43.9 54.7 43.9H335.6l42 107.9 7.4 19 20-4.3 44.8-9.6 23.5-5-10.1-46.9-23.5 5-24.8 5.3L374.4 319.3l-6-15.3H352 283.3l-10.7-48H328h24V208H328 261.9l-6.5-29.2L251.3 160H232 160zm52.7 48l21.3 96H217.7c-3.7 0-7-2.6-7.8-6.3L189.9 208h22.8zM79.6 147.8l-4.2-23.6-47.3 8.3 4.2 23.6 48 272L83.9 448H104 280h24V400H280 124.1L79.6 147.8z"/></svg>
